X:215
T: ICH WAR EIN RECHTER FASELHANS
N: B0702
O: Europa, Mitteleuropa, Deutschland
R: Scherz - Lied
M: 2/4
L: 1/16
K: Bb
DE | F2F2F2=EF | B2B2B2
cB | A2c2f2e2 | d4z2
d2 | d2^F2F2F2 | G2A2B2
=B2 | c2=E2E2E2 | F4z2
F2 | e2c2d2B2 | A2B2c2
F2 | B2d2e2d2 | c4z2
f2 | d2d2B2B2 | c2d2e2
c2 | d2c2B2A2 | B4z2

